image/logo-white.svg

<svg fill="none" height="47" viewBox="0 0 125 47" width="125" xmlns="http://www.w3.org/2000/svg"><g fill="#fff"><path d="m65.8624.0442505c.0859.0181744.2246.1486995.2676.2362675 3.5903 7.031842 7.4416 13.929882 10.8832 21.037682l1.9199-3.9736 9.1912-17.174781c.0314-.042957.1471-.1239159.1834-.1239159h2.5907l.1074.1073939v28.462803l-.1074.1073h-2.3015l-.1074-.1073v-24.5454l-10.3214 19.5557-2.4916-.0513-9.9926-19.3243-.1454.07435c-.0182.09748.0727.18505.0727.21313v24.07782l-.1074.1073h-2.3015l-.1074-.1073v-28.462803l.1074-.1073939h2.6617z"/><path d="m32.7684.0442505.1123.2478325-.0066 18.261917c.4808 6.1479 3.9736 8.8014 10.0422 8.4445 5.1252-.3007 7.5044-4.0876 7.734-8.8757.2809-5.8621-.2131-11.94717-.0066-17.830717l.1124-.2478325h2.3015l.1124.2478325c-.1917 5.876937.2428 11.900917 0 17.759717-.2826 6.779-4.0248 10.8501-10.8981 11.1772-6.9723.3305-11.5324-3.7274-11.9125-10.6733v-18.261964l.1107-.2478329h2.3016z"/><path d="m121.327 28.7218c-.061-.0099-.18-.0909-.201-.1636l-3.344-8.5849-.159-.2016h-13.239l-3.47 8.8575c-.125.1438-2.4204.1289-2.498.0166l11.329-28.53052c.055-.0743501.131-.0677414.212-.0776547.371-.04460991 1.971-.0578275 2.305.006609.056.0115655.109.0231309.15.0644367l11.395 28.436329c.015.0595-.076.1751-.107.1751-.659 0-1.781.0975-2.374 0zm-16.077-11.0682h11.474l.098-.1669-5.781-14.7097z"/><path d="m3.12933.0442246c.05287.0082611.14209.0809594.18174.1255684l8.67253 14.385807.2808.2941 8.8824-14.681559c.0347-.041306.1437-.125569.1817-.125569h2.3015l.1091.176787-10.3611 16.821241v11.5721l-.1074.1074h-2.3015l-.1074-.1074v-11.5721l-10.290004-16.819588.109046-.17844h2.445278z"/><path d="m19.2797 38.9639c.0909-.3305.9764-.2826 1.2623-.2545.2561.0248.4196.0975.6096.2743l2.409 5.981 2.4816-5.9281c.1636-.4759 1.7993-.4197 1.7993-.0711v7.511c-.4015.1471-.6774.1471-1.0789 0v-6.7559l-2.7278 6.708c-.3652.2693-.9765.2627-1.1483-.2131-.7138-2.0273-1.5994-4.0001-2.3148-6.0257-.0462-.1305-.0776-.2594-.0694-.3982h-.2148l.0694 6.5032c-.0809.418-.7815.3238-1.0772.1817z"/><path d="m53.5962 39.719c-.1751-.0479-.218.2825-.2693.413-.8195 2.0587-1.6241 4.1223-2.4485 6.1777-.2198.4064-.7601.3618-1.0988.114l-2.4601-6.5081-.1966-.1983c.0115.418-.0182.8427-.0033 1.2607.0528 1.5349.2478 3.6811.076 5.1731-.0744.6509-1.0244.5072-1.0806.2147l.0678-7.4795c.1437-.2396 1.064-.2214 1.3316-.1719.3206.0595.5403.4329.6642.7022.7799 1.6968 1.3185 3.6762 2.0769 5.4044.038.0876-.0033.1752.1404.1438l2.4816-5.9827c.3074-.4048 1.1781-.2974 1.6275-.2032.1355.1503.1586.3502.1768.5435.2015 2.1843-.152 4.6791-.0083 6.8981-.0562.4841-.7699.4675-1.0739.2197v-6.7196z"/><path d="m67.4584 38.7276c1.9529-.0231 4.2759-.3502 5.3598 1.6605.7319 1.3565.6096 3.8761-.4445 5.0475-.7997.8889-1.7646 1.0558-2.9129 1.1153-.332.0165-2.0289.0595-2.1644-.1438v-7.5489l.1603-.1289zm.9219.8476-.1074.1074v5.8224l.1074.1074h1.8703c.0545 0 .8641-.3949.9666-.4725 1.3763-1.0376 1.2887-4.3536-.3041-5.221-.0991-.0545-.831-.3453-.8773-.3453h-1.6539z"/><path d="m32.357 46.4583c-.1966.195-1.0558.2148-1.0607-.0859l2.7278-7.5572c.1239-.1421.9897-.1454 1.178-.0893.1636.0496.2561.3222.3206.4709.6311 1.4556 1.2094 3.2731 1.7464 4.7948.1123.3205.8211 2.3015.7814 2.4337-.1437.2974-.9054.2115-1.0772.0182-.2313-.2594-.494-1.8076-.7617-1.8985l-3.1904.0232c-.2016.1206-.4808 1.7084-.6625 1.8885zm1.1318-2.7856c.6179.0875 1.6324 0 2.3015 0 .0364 0 .1173-.119.1107-.1785l-1.2606-3.6299-1.3235 3.7026c0 .0265.1537.1025.1719.1041z"/><path d="m96.131 46.4567c-.2512-.2379-.5023-1.8026-.6774-1.91-.9699.0711-2.1793-.1355-3.1211-.0165-.0793.0099-.1619-.0066-.2131.0744-.1669.3238-.4345 1.672-.6279 1.8521-.2362.2214-.788.1817-1.0557.0116l2.8468-7.744h1.1284l.2462.4015 2.5312 7.1078c.1124.5221-.836.4329-1.0574.2231zm-3.5077-2.784h2.3743c.0214 0 .1272-.1074.0974-.1652l-1.3201-3.6432-1.2623 3.6283c0 .0644.0578.1636.1107.1801z"/><path d="m9.14995 38.726c.20158-.0562.91035-.1173.98475.1041.109 1.6142-.1124 3.354.0066 4.9533.0892 1.183.6477 1.9596 1.9099 1.9794 1.1153.0165 1.7795-.7022 1.9067-1.7662l.0099-5.1649c.0612-.1883.9649-.1553 1.0376-.0512l.0231 5.2805c-.0925 3.0913-5.0243 3.5936-5.81246.7898-.29409-1.0509-.24453-4.5453-.15531-5.7448.00992-.1322.01983-.2644.08757-.38z"/><path d="m121.22 43.6v2.8749c-.405.1767-.671.1387-1.079 0v-7.511c0-.0149.18-.1966.216-.2148.169-.076 2.166-.0678 2.48-.0364 1.73.1735 2.532 1.6109 2.001 3.2202-.517 1.5713-2.197 1.6836-3.618 1.6671zm0-.9335h1.475c.212 0 .769-.4213.901-.6097.391-.5601.329-1.8141-.291-2.2255-.056-.038-.507-.2544-.537-.2544h-1.546v3.0912z"/><path d="m63.1643 39.5752h-3.1657v2.4437h2.6981c.2528.2395.2478.6294 0 .8624h-2.6981v2.6948c.1157.1784.2809.0363.4643.033.7088-.0149 1.6952-.0661 2.3775.0033.6213.0628.4726.3189.4577.8526-.076.038-.1619.0644-.2478.0743-.7782.0992-2.7989.0892-3.592.0066-.4114-.0429-.5055-.1288-.5435-.5353-.2016-2.1908.1602-4.6824 0-6.9063-.0447-.1057.2114-.3915.2561-.3915h3.957c.304.2792.1504.5469.0364.8624z"/><path d="m87.6071 40.2047c-.1685.2132-.793-.3271-1.0128-.4279-1.3994-.6394-2.7708-.0991-3.2631 1.3664-.7386 2.1958.147 5.3499 3.0483 4.4114.2561-.0826 1.0674-.6262 1.2012-.5865.1652.0495.1338.5336.1107.6757-.1091.6758-1.7629 1.0343-2.3412 1.0393-4.3784.0347-4.3073-6.9889-1.0359-7.9356.8145-.2363 2.5543-.1537 3.1705.5006.2049.2181.3057.7253.124.9566z"/><path d="m2.87651 42.4501 1.69187-3.6646c.3387-.1966.68237-.1008 1.04255-.0727l-.03304.3618-2.25032 4.4362-.02809 2.9178c-.07766.228-.98968.2743-1.06734-.1371-.15696-.8178.12723-2.0603-.01982-2.9277l-2.1710146-4.2991-.0413054-.3536c.327139-.0248.875675-.1239 1.1202.1388l1.75631 3.5985z"/><path d="m113.739 38.7128v6.8996h2.841c.202 0 .415.8377-.074.9335-1.057-.0776-2.268.1091-3.308 0-.413-.0429-.505-.1305-.543-.5353-.205-2.2305.153-4.7782.011-7.0417l.118-.2561z"/><path d="m100.718 38.7128h.955c.09.033.107.1734.117.2577.188 1.5052.061 4.1553.01 5.7481-.01.2908-.212.6642.033.8955h2.734c.217 0 .207.6906.17.8525-.057.0298-.122.0512-.186.0628-.615.1124-2.553.081-3.224.0215-.201-.0182-.462-.0397-.609-.1818z"/><path d="m78.1168 38.7227.0116 7.6448c-.0595.3057-.9418.347-1.0095 0v-7.4763l.0694-.1454c.3189-.1074.6047-.0842.9285-.0231z"/></g></svg>

<svg width="125" height="47" viewBox="0 0 125 47" fill="none" xmlns="http://www.w3.org/2000/svg">
<path d="M65.8624 0.0442505C65.9483 0.0624249 66.087 0.19295 66.13 0.280518C69.7203 7.31236 73.5716 14.2104 77.0132 21.3182L78.9331 17.3446L88.1243 0.169819C88.1557 0.126862 88.2714 0.0459031 88.3077 0.0459031H90.8984L91.0058 0.153297V28.6161L90.8984 28.7234H88.5969L88.4895 28.6161V4.0707L78.1681 23.6264L75.6765 23.5751L65.6839 4.2508L65.5385 4.32515C65.5203 4.42263 65.6112 4.5102 65.6112 4.53828V28.6161L65.5038 28.7234H63.2023L63.0949 28.6161V0.153297L63.2023 0.0459031H65.864L65.8624 0.0442505Z" fill="white"/>
<path d="M32.7684 0.0442505L32.8807 0.292083L32.8741 18.554C33.3549 24.7019 36.8477 27.3554 42.9163 26.9985C48.0415 26.6978 50.4207 22.9109 50.6503 18.1228C50.9312 12.2607 50.4372 6.17563 50.6437 0.292083L50.7561 0.0442505H53.0576L53.17 0.292083C52.9783 6.16902 53.4128 12.193 53.17 18.0518C52.8874 24.8308 49.1452 28.9019 42.2719 29.229C35.2996 29.5595 30.7395 25.5016 30.3594 18.5557V0.293736L30.4701 0.0459031H32.7717L32.7684 0.0442505Z" fill="white"/>
<path d="M121.327 28.7218C121.266 28.7119 121.147 28.6309 121.126 28.5582L117.782 19.9733L117.623 19.7717H104.384L100.914 28.6292C100.789 28.773 98.4936 28.7581 98.416 28.6458L109.745 0.11528C109.8 0.0409299 109.876 0.0475386 109.957 0.0376253C110.328 -0.00698461 111.928 -0.0202022 112.262 0.0442343C112.318 0.0557998 112.371 0.0673652 112.412 0.108671L123.807 28.545C123.822 28.6045 123.731 28.7201 123.7 28.7201C123.041 28.7201 121.919 28.8176 121.326 28.7201L121.327 28.7218ZM105.25 17.6536H116.724L116.822 17.4867L111.041 2.777L105.25 17.6536Z" fill="white"/>
<path d="M3.12933 0.0442246C3.1822 0.0524857 3.27142 0.125184 3.31107 0.169793L11.9836 14.5556L12.2644 14.8497L21.1468 0.168141C21.1815 0.126835 21.2905 0.042572 21.3285 0.042572H23.63L23.7391 0.219359L13.378 17.0406V28.6127L13.2706 28.7201H10.9691L10.8617 28.6127V17.0406L0.571696 0.221012L0.680742 0.042572H3.12602L3.12933 0.0442246Z" fill="white"/>
<path d="M19.2797 38.9639C19.3706 38.6334 20.2561 38.6813 20.542 38.7094C20.7981 38.7342 20.9616 38.8069 21.1516 38.9837L23.5606 44.9647L26.0422 39.0366C26.2058 38.5607 27.8415 38.6169 27.8415 38.9655V46.4765C27.44 46.6236 27.1641 46.6236 26.7626 46.4765V39.7206L24.0348 46.4286C23.6696 46.6979 23.0583 46.6913 22.8865 46.2155C22.1727 44.1882 21.2871 42.2154 20.5717 40.1898C20.5255 40.0593 20.4941 39.9304 20.5023 39.7916H20.2875L20.3569 46.2948C20.276 46.7128 19.5754 46.6186 19.2797 46.4765V38.9639Z" fill="white"/>
<path d="M53.5962 39.719C53.4211 39.6711 53.3782 40.0015 53.3269 40.132C52.5074 42.1907 51.7028 44.2543 50.8784 46.3097C50.6586 46.7161 50.1183 46.6715 49.7796 46.4237L47.3195 39.9156L47.1229 39.7173C47.1344 40.1353 47.1047 40.56 47.1196 40.978C47.1724 42.5129 47.3674 44.6591 47.1956 46.1511C47.1212 46.802 46.1712 46.6583 46.115 46.3658L46.1828 38.8863C46.3265 38.6467 47.2468 38.6649 47.5144 38.7144C47.835 38.7739 48.0547 39.1473 48.1786 39.4166C48.9585 41.1134 49.4971 43.0928 50.2555 44.821C50.2935 44.9086 50.2522 44.9962 50.3959 44.9648L52.8775 38.9821C53.1849 38.5773 54.0556 38.6847 54.505 38.7789C54.6405 38.9292 54.6636 39.1291 54.6818 39.3224C54.8833 41.5067 54.5298 44.0015 54.6735 46.2205C54.6173 46.7046 53.9036 46.688 53.5996 46.4402V39.7206L53.5962 39.719Z" fill="white"/>
<path d="M67.4584 38.7276C69.4113 38.7045 71.7343 38.3774 72.8182 40.3881C73.5501 41.7446 73.4278 44.2642 72.3737 45.4356C71.574 46.3245 70.6091 46.4914 69.4608 46.5509C69.1288 46.5674 67.4319 46.6104 67.2964 46.4071V38.8582L67.4567 38.7293L67.4584 38.7276ZM68.3803 39.5752L68.2729 39.6826V45.505L68.3803 45.6124H70.2506C70.3051 45.6124 71.1147 45.2175 71.2172 45.1399C72.5935 44.1023 72.5059 40.7863 70.9131 39.9189C70.814 39.8644 70.0821 39.5736 70.0358 39.5736H68.3819L68.3803 39.5752Z" fill="white"/>
<path d="M32.357 46.4583C32.1604 46.6533 31.3012 46.6731 31.2963 46.3724L34.0241 38.8152C34.148 38.6731 35.0138 38.6698 35.2021 38.7259C35.3657 38.7755 35.4582 39.0481 35.5227 39.1968C36.1538 40.6524 36.7321 42.4699 37.2691 43.9916C37.3814 44.3121 38.0902 46.2931 38.0505 46.4253C37.9068 46.7227 37.1451 46.6368 36.9733 46.4435C36.742 46.1841 36.4793 44.6359 36.2116 44.545L33.0212 44.5682C32.8196 44.6888 32.5404 46.2766 32.3587 46.4567L32.357 46.4583ZM33.4888 43.6727C34.1067 43.7602 35.1212 43.6727 35.7903 43.6727C35.8267 43.6727 35.9076 43.5537 35.901 43.4942L34.6404 39.8643L33.3169 43.5669C33.3169 43.5934 33.4706 43.6694 33.4888 43.671V43.6727Z" fill="white"/>
<path d="M96.131 46.4567C95.8798 46.2188 95.6287 44.6541 95.4536 44.5467C94.4837 44.6178 93.2743 44.4112 92.3325 44.5302C92.2532 44.5401 92.1706 44.5236 92.1194 44.6046C91.9525 44.9284 91.6849 46.2766 91.4915 46.4567C91.2553 46.6781 90.7035 46.6384 90.4358 46.4683L93.2826 38.7243H94.411L94.6572 39.1258L97.1884 46.2336C97.3008 46.7557 96.3524 46.6665 96.131 46.4567ZM92.6233 43.6727H94.9976C95.019 43.6727 95.1248 43.5653 95.095 43.5075L93.7749 39.8643L92.5126 43.4926C92.5126 43.557 92.5704 43.6562 92.6233 43.6727Z" fill="white"/>
<path d="M9.14995 38.726C9.35153 38.6698 10.0603 38.6087 10.1347 38.8301C10.2437 40.4443 10.0223 42.1841 10.1413 43.7834C10.2305 44.9664 10.789 45.743 12.0512 45.7628C13.1665 45.7793 13.8307 45.0606 13.9579 43.9966L13.9678 38.8317C14.029 38.6434 14.9327 38.6764 15.0054 38.7805L15.0285 44.061C14.936 47.1523 10.0042 47.6546 9.21604 44.8508C8.92195 43.7999 8.97151 40.3055 9.06073 39.106C9.07065 38.9738 9.08056 38.8416 9.1483 38.726H9.14995Z" fill="white"/>
<path d="M121.22 43.6V46.4749C120.815 46.6516 120.549 46.6136 120.141 46.4749V38.9639C120.141 38.949 120.321 38.7673 120.357 38.7491C120.526 38.6731 122.523 38.6813 122.837 38.7127C124.567 38.8862 125.369 40.3236 124.838 41.9329C124.321 43.5042 122.641 43.6165 121.22 43.6ZM121.22 42.6665H122.695C122.907 42.6665 123.464 42.2452 123.596 42.0568C123.987 41.4967 123.925 40.2427 123.305 39.8313C123.249 39.7933 122.798 39.5769 122.768 39.5769H121.222V42.6681L121.22 42.6665Z" fill="white"/>
<path d="M63.1643 39.5752H59.9986V42.0189H62.6967C62.9495 42.2584 62.9445 42.6483 62.6967 42.8813H59.9986V45.5761C60.1143 45.7545 60.2795 45.6124 60.4629 45.6091C61.1717 45.5942 62.1581 45.543 62.8404 45.6124C63.4617 45.6752 63.313 45.9313 63.2981 46.465C63.2221 46.503 63.1362 46.5294 63.0503 46.5393C62.2721 46.6385 60.2514 46.6285 59.4583 46.5459C59.0469 46.503 58.9528 46.4171 58.9148 46.0106C58.7132 43.8198 59.075 41.3282 58.9148 39.1043C58.8701 38.9986 59.1262 38.7128 59.1709 38.7128H63.1279C63.4319 38.992 63.2783 39.2597 63.1643 39.5752Z" fill="white"/>
<path d="M87.6071 40.2047C87.4386 40.4179 86.8141 39.8776 86.5943 39.7768C85.1949 39.1374 83.8235 39.6777 83.3312 41.1432C82.5926 43.339 83.4782 46.4931 86.3795 45.5546C86.6356 45.472 87.4469 44.9284 87.5807 44.9681C87.7459 45.0176 87.7145 45.5017 87.6914 45.6438C87.5823 46.3196 85.9285 46.6781 85.3502 46.6831C80.9718 46.7178 81.0429 39.6942 84.3143 38.7475C85.1288 38.5112 86.8686 38.5938 87.4848 39.2481C87.6897 39.4662 87.7905 39.9734 87.6088 40.2047H87.6071Z" fill="white"/>
<path d="M2.87651 42.4501L4.56838 38.7855C4.90708 38.5889 5.25075 38.6847 5.61093 38.7128L5.57789 39.0746L3.32757 43.5108L3.29948 46.4286C3.22182 46.6566 2.3098 46.7029 2.23214 46.2915C2.07518 45.4737 2.35937 44.2312 2.21232 43.3638L0.0413054 39.0647L0 38.7111C0.327139 38.6863 0.875675 38.5872 1.1202 38.8499L2.87651 42.4484V42.4501Z" fill="white"/>
<path d="M113.739 38.7128V45.6124H116.58C116.782 45.6124 116.995 46.4501 116.506 46.5459C115.449 46.4683 114.238 46.655 113.198 46.5459C112.785 46.503 112.693 46.4154 112.655 46.0106C112.45 43.7801 112.808 41.2324 112.666 38.9689L112.784 38.7128H113.739Z" fill="white"/>
<path d="M100.718 38.7128H101.673C101.763 38.7458 101.78 38.8862 101.79 38.9705C101.978 40.4757 101.851 43.1258 101.8 44.7186C101.79 45.0094 101.588 45.3828 101.833 45.6141H104.567C104.784 45.6141 104.774 46.3047 104.737 46.4666C104.68 46.4964 104.615 46.5178 104.551 46.5294C103.936 46.6418 101.998 46.6104 101.327 46.5509C101.126 46.5327 100.865 46.5112 100.718 46.3691V38.7128Z" fill="white"/>
<path d="M78.1168 38.7227L78.1284 46.3675C78.0689 46.6732 77.1866 46.7145 77.1189 46.3675V38.8912L77.1883 38.7458C77.5072 38.6384 77.793 38.6616 78.1168 38.7227Z" fill="white"/>
</svg>
